X:92
T:Farewell to Ireland                                                                               
M:4/4                                                                                               
L:1/8                                                                                               
K:ADor                                                                                              
A,3 C E3 F|GEDB, G,B,DB,|A,3 C E3 F|GEDF EA,A,G,|                                                   
A,3 C E3 F|GEDB, D2 g2|edeg a2 ba|gedB BA A2:|                                                      
K:AMix                                                                                              
a2 ag agef|g2 ga gede|a2  ag agef|gedB BA A2|                                                       
agef gage|d3 B GABd|(3cBA BA (3Bcd ef|gedB BA A2 :|                                                 
eABA eABA|d3 B GABd|eABA eAAa|gedB BA A2|                                                           
eABA eABA|d3 B GABd|(3cBA BA (3Bcd ef|gedB BA A2:|                                                  
aece aece|gdBd gdBd|aece a3 f|gedB BAAe|                                                            
agef g3 e|dedB GABd|(3cBA BA (3Bcd ef|gedB BA A2 :|
